X:21181 
T:SLIGO LASSES (reel), The
B:DMI.0636
Z:Nordberg/Black
R:reel
%Q:1/4=180
M:C|
L:1/8
K:G
AF|G2BG DGBG|D2 FD dAFA|G2BG DGef|1 gedc BG:|\
[2 gedc Bdef||
g2bg dgbg|fgag fdef|g2bg dgbg|dega bgg2|
dgbg dgbg|fgag fdef|gaba gedc|BdAG FDEF||
"final"HG4z4|]

%%%

